src/assets/filled/Apple.svg

<svg width="24" height="24" viewBox="0 0 24 24"  xmlns="http://www.w3.org/2000/svg">
<path fill-rule="evenodd" clip-rule="evenodd" d="M19.1001 19.16C19.6901 18.26 19.9101 17.8 20.3601 16.79C17.0401 15.53 16.5101 10.8 19.7901 8.98999C18.7901 7.72999 17.3801 7 16.0501 7C15.0901 7 14.4301 7.25001 13.8401 7.48001C13.3401 7.67001 12.8901 7.84 12.3301 7.84C11.7301 7.84 11.2001 7.65001 10.6401 7.45001C10.0301 7.23001 9.39006 7 8.59006 7C7.10006 7 5.51007 7.91 4.50007 9.47C3.08007 11.67 3.33007 15.79 5.62007 19.31C6.44007 20.57 7.54007 21.98 8.97007 22C9.57007 22.01 9.96007 21.83 10.3901 21.64C10.8801 21.42 11.4101 21.18 12.3401 21.18C13.2701 21.17 13.7901 21.42 14.2801 21.64C14.7001 21.83 15.0801 22.01 15.6701 22C17.1201 21.98 18.2801 20.42 19.1001 19.16Z" />
<path fill-rule="evenodd" clip-rule="evenodd" d="M15.8399 2C15.9999 3.1 15.5499 4.19001 14.9599 4.95001C14.3299 5.77001 13.2299 6.41 12.1699 6.37C11.9799 5.31 12.4699 4.21999 13.0699 3.48999C13.7399 2.68999 14.8699 2.07 15.8399 2Z" />
</svg>

<?xml version="1.0" encoding="UTF-8"?>
<svg width="24" height="24" viewBox="0 0 24 24" xmlns="http://www.w3.org/2000/svg">
 <path d="m19.1 19.16c0.59-0.9 0.81-1.36 1.26-2.37-3.32-1.26-3.85-5.99-0.57-7.8-1-1.26-2.41-1.99-3.74-1.99-0.96 0-1.62 0.25001-2.21 0.48001-0.5 0.19-0.95 0.35999-1.51 0.35999-0.6 0-1.13-0.18999-1.69-0.38999-0.61-0.22-1.25-0.45001-2.05-0.45001-1.49 0-3.08 0.91-4.09 2.47-1.42 2.2-1.17 6.32 1.12 9.84 0.82 1.26 1.92 2.67 3.35 2.69 0.6 0.01 0.99-0.17 1.42-0.36 0.49-0.22 1.02-0.46 1.95-0.46 0.93-0.01 1.45 0.24 1.94 0.46 0.42 0.19 0.8 0.37 1.39 0.36 1.45-0.02 2.61-1.58 3.43-2.84z" clip-rule="evenodd" fill-rule="evenodd"/>
 <path d="m15.84 2c0.16 1.1-0.29 2.19-0.88 2.95-0.63 0.82-1.73 1.46-2.79 1.42-0.19-1.06 0.3-2.15 0.9-2.88 0.67-0.8 1.8-1.42 2.77-1.49z" clip-rule="evenodd" fill-rule="evenodd"/>
</svg>
